X:424
T: Der Reiter im Quartier (143), S. 319
N: T0312
O: Luxemburg
S: Singendes Volk, Esch-Alzette 1937, posth.]
N: Heffingen, fff Anna Kimmel, 10.3.1933
R: historische, Kriegs- und Soldatenlieder]
M: 6/8
L: 1/8
K: G
D | GGGBGB | d3d2
d | c2cB2B | A3z2
D | GGGBGB | d3e2
c | B2BA2A | G3z2
d | d2dd2g | e3z2
d | c2Bc2e | d3z2
D | GGGBGB | d3e2
c | B2BA2A | G2z3

@@@ Tune index: 8478
